X:13
T:Mazurka d'Embrault
T:Fubu's Mazurka
R:Mazurka
C:Thierry Mirebeau
D:Fubu
O:France
M:3/4
L:1/8
Z:<anamnese@laposte.net> -- http://anamnese.fr.st
Q:1/4=147
K:A
|: AB c2 cB | AG F3 E | Bcd EEE/E/ | dB c2 A2 |
   AB c2 cB | AG F3 E | Bcd EEE/E/ |1 BG A4 :|2 BG A3 E |
|: FG A2 AB |=ce d3 e | dB=c AEA | =cAB GEG |
   BG A2 AB |=ce d3 e | dB=c AEG/A/ |1 BGA3 E :|2 BGA3 z |]
